X:1
T:Let Your Back and Side go Bare
M:4/4
L:1/4
K:F
 z2 F3/2 G/2| A F c F| G/2F/2 G/2A/2 F3/2 F/2| d d/2e/2 f c| f3 c|\
 d d/2c/2 d/2e/2 f| c c/2B/2 A/2F/2 G/2F/2| A F D/2D/2 E| F3 F/2A/2|\
 A F c F| G3/2 A/2 F2| d d/2e/2 f c| f3 c| d d/2c/2 d/2e/2 f| z c/2B/2 A F/2G/2|\
 A F D E| F3 z|
